X:153
T:Nig'n no 7
O:klezmer
M:4/4
L:1/8
Q:1/4=
K:Em
V:1
"Em" E3 FG2 G2 |G2 F2 E4 |"B" _E3 EF2 E2 |_E2 C2 B,4 |
_E2 B,2 _E2 B,2 |"Am" A2 BA G2 F2 |1 "Em" (G8 |G8) :|2
"Em" (E8 |E8) || |:"G" G3 AB2 B2 |B2 A2 G4 |
"Am" A4 B2 A2 |"Em" G2 F2 E4 |G2 E2 G2 E2 |"D7" A2 BA G2 F2 |
|1 "G" (G8 |G8) :|2 (E8 |E8) || |:
"G" (B8 |B2) G2 A2 G2 |(B8 |B2) G2 A2 G2 |
"D" d4 c4 |"G" B4 A2 G2 |1 "D7" AB "G" (G6 |G2) D2 G2 A2 :|2
"D7" AB "G" (G6 |G4) z4 ||





